X:1
T:Mrs. C. H. Morris
T:Mrs. C. H. M.
T:Keep Passing Your Blessings Along
%%score { ( 1 2 ) | ( 3 4 ) }
L:1/8
M:9/8
K:Bb
V:1 treble 
V:2 treble 
V:3 bass 
V:4 bass 
V:1
{/x} FFD E | F3 G2 B BAG | B3 A2 A ACD | E3 A2 G GF^D | F3- F2 F ddc | B3 F2 B BAG | A3 c2 c ccd | %7
w: O how much of|good we thro' grace might be|do\- ing, While here in\- ter\-|ming\- ling with earth's bus\- y|throng, * If true to our|trust while life's mis\- sion pur\-|su- ing, We would but keep|
w: If sun\- shine to\-|day has your path\- way been|flood\- ing, Your heart o\- ver\-|flow\- ing with glad\- ness and|song, * A broth\- er be\-|side you some com\- fort is|need\- ing; Di\- vide your good|
w: A word, or a|look, or a smile, or a|hand\- clasp, May save some poor|broth\- er from do- ing the|wrong; * From out of your|store\- house, with grace o\- ver\-|flow\- ing, Keep ev\- er\- more|
 c3 A2 c BAG | F3- F2 z"^Chorus" F3 | E3 A2 c AGF | d3- d3 d3 | d3 A2 c BAG | (A3 G2) F FDE | %13
w: pass\- ing our bless\- ings a\-|long. * Keep|pass\- ing your bless\- ings a\-|long, * Keep|pass\- ing your bless\- ings a\-|long; * Some woes you may|
w: cheer, pass your bless\- ings a\-|long. * *|||||
w: pass\- ing your bless\- ings a\-|long. * *|||||
 F3 B2 d dcB | A3 G3 B3 | F3 d2 e cBA | B3- B2 |] %17
w: light\- en, some path\- way may|bright\- en, Keep|pass\- ing your bless\- ings a\-|long. *|
w: ||||
w: ||||
V:2
 DDB, C | D3 D2 D DDD | E3 E2 E EA,B, | C3 E2 E ED^C | D3- D2 D FEF | F3 D2 D EEE | E3 F2 F =EEE | %7
 F3 F2 F GF=E | C3 C2 z C3 | C3 E2 E EEE | F3 F3 F3 | ^F3 =F2 c BGG | E3 E2 E DB,C | D3 D2 F FFF | %14
 F3 E3 _D3 | ^D3 F2 G E=DE | D3- D2 |] %17
V:3
 B,B,F, F, | B,3 B,2 F, F,F,F, | F,3 C2 C CF,F, | F,3 F,2 A, B,B,B, | B,3- B,2 B, B,B,E | %5
w: |||||
 D3 B,2 F, F,F,A, | C3 A,2 A, B,B,B, | A,3 C2 C DCB, | A,3- A,2 z A,3 | A,A,A, CCA, CB,A, | %10
w: |||* * Keep|pass- ing your bless- ings, your bless- ings a-|
 B,2 B, B,3 B,3 | A,A,A, DDD DCB, | C2 C A,2 A, B,F,F, | B,3 B,2 B, B,A,B, | B,3 B,3 B,3 | %15
w: long, a long, Keep|pass- ing your bless- ings, your bless- ings a-|long, a- long; * * * *|||
 B,3 =B,2 C A,F,F, | F,3- F,2 |] %17
w: ||
V:4
 B,,B,,B,, B,, | B,,3 B,,2 B,, B,,B,,B,, | C,3 F,2 F, F,F,F, | F,3 F,2 F, B,,B,,B,, | %4
 B,,3 B,,2 B,, F,G,A, | B,3 B,,2 B,, C,C,C, | F,3 F,2 F, G,G,C, | F,3 F,2 A, B,CC, | %8
 F,3- F,2 z F,3 | F,F,F, F,F,F, F,F,F, | B,,2 B,, B,,3 B,,3 | D,D,D, D,D,D, G,G,G, | %12
 F,2 F, F,2 F, B,,B,,B,, | B,,3 B,,2 B,, B,,C,D, | E,3 E,3 =E,3 | F,3 G,2 C, F,F,F, | F,3- F,2 |] %17

